packages/dnb-eufemia/assets/icons/file_medium.svg

<svg width="24" height="24" viewBox="0 0 24 24" fill="none" xmlns="http://www.w3.org/2000/svg">
<path d="M7 5H12.5M7 8H15.5M7 19H14.5M20.5 7.86631V22C20.5 22.5523 20.0523 23 19.5 23H4.5C3.94772 23 3.5 22.5523 3.5 22V2C3.5 1.44772 3.94772 1 4.5 1L14.5362 1C14.8304 1 15.1096 1.12951 15.2996 1.35406L20.2634 7.22036C20.4162 7.40092 20.5 7.62979 20.5 7.86631Z" stroke="black" stroke-width="1.5" stroke-linecap="round" stroke-linejoin="round"/>
</svg>

<svg width="24" height="24" viewBox="0 0 24 24" fill="none" xmlns="http://www.w3.org/2000/svg"><path d="M7 5h5.5M7 8h8.5M7 19h7.5m6-11.134V22a1 1 0 0 1-1 1h-15a1 1 0 0 1-1-1V2a1 1 0 0 1 1-1h10.036a1 1 0 0 1 .764.354l4.963 5.866a1 1 0 0 1 .237.646Z" stroke="#000" stroke-width="1.5" stroke-linecap="round" stroke-linejoin="round"/></svg>
